app/assets/images/Contenido/Odin/Electrónica.svg

<svg fill="none" height="130" viewBox="0 0 117 130" width="117" xmlns="http://www.w3.org/2000/svg"><circle cx="57.8343" cy="45.4964" r="44.3397" stroke="#000" stroke-width="2.31337"/><g fill="#000"><path d="m4.966 122.659h8.0231v2.214h-10.66361v-14.218h10.37921v2.214h-7.7387v3.697h6.8653v2.173h-6.8653zm10.7229 2.214v-15.071h2.539v15.071zm16.0678-5.362c0 .203-.0204.508-.0407.751h-8.5105c.3047 1.585 1.6249 2.6 3.5139 2.6 1.2187 0 2.1733-.386 2.9452-1.178l1.3608 1.564c-.9749 1.158-2.4983 1.767-4.3669 1.767-3.6358 0-5.992-2.336-5.992-5.565 0-3.23 2.3765-5.545 5.606-5.545 3.1686 0 5.4842 2.214 5.4842 5.606zm-5.4842-3.575c-1.6452 0-2.8436 1.056-3.0873 2.64h6.1544c-.2031-1.564-1.4015-2.64-3.0671-2.64zm12.8993 9.079c-3.4326 0-5.87-2.315-5.87-5.565s2.4374-5.545 5.87-5.545c2.1124 0 3.7983.873 4.6311 2.518l-1.95 1.138c-.6499-1.036-1.6249-1.503-2.7014-1.503-1.8687 0-3.2905 1.3-3.2905 3.392 0 2.112 1.4218 3.392 3.2905 3.392 1.0765 0 2.0515-.467 2.7014-1.503l1.95 1.137c-.8328 1.625-2.5187 2.539-4.6311 2.539zm12.7738-2.539.7109 1.808c-.6094.487-1.5234.731-2.4374.731-2.3765 0-3.7373-1.259-3.7373-3.656v-5.22h-1.7875v-2.031h1.7875v-2.478h2.5389v2.478h2.9046v2.031h-2.9046v5.159c0 1.056.5281 1.625 1.5031 1.625.5281 0 1.0359-.142 1.4218-.447zm5.2166-6.865c.7312-1.138 2.0514-1.706 3.8592-1.706v2.417c-.2235-.041-.4063-.061-.5891-.061-1.9296 0-3.1483 1.137-3.1483 3.351v5.261h-2.5389v-10.846h2.4171zm9.0621-3.067 2.7421-2.783h2.9858l-3.5342 2.783zm1.7265 12.471c-3.3311 0-5.7685-2.315-5.7685-5.565s2.4374-5.545 5.7685-5.545c3.3717 0 5.7888 2.295 5.7888 5.545s-2.4171 5.565-5.7888 5.565zm0-2.173c1.8483 0 3.2295-1.32 3.2295-3.392s-1.3812-3.392-3.2295-3.392c-1.8281 0-3.2092 1.32-3.2092 3.392s1.3811 3.392 3.2092 3.392zm14.3711-8.937c2.5999 0 4.5295 1.482 4.5295 4.753v6.215h-2.539v-5.89c0-1.93-.9546-2.864-2.5796-2.864-1.8077 0-3.0264 1.097-3.0264 3.27v5.484h-2.5389v-10.846h2.417v1.401c.8328-.995 2.1531-1.523 3.7374-1.523zm9.0299-1.666c-.9343 0-1.6249-.67-1.6249-1.523s.6906-1.524 1.6249-1.524 1.6249.63 1.6249 1.463c0 .894-.6703 1.584-1.6249 1.584zm-1.2796 12.634v-10.846h2.5389v10.846zm10.8478.142c-3.4328 0-5.8702-2.315-5.8702-5.565s2.4374-5.545 5.8702-5.545c2.112 0 3.798.873 4.631 2.518l-1.95 1.138c-.65-1.036-1.625-1.503-2.701-1.503-1.8692 0-3.291 1.3-3.291 3.392 0 2.112 1.4218 3.392 3.291 3.392 1.076 0 2.051-.467 2.701-1.503l1.95 1.137c-.833 1.625-2.519 2.539-4.631 2.539zm10.969-11.11c3.128 0 4.936 1.482 4.936 4.61v6.358h-2.397v-1.32c-.609.934-1.787 1.462-3.412 1.462-2.478 0-4.042-1.361-4.042-3.25 0-1.807 1.218-3.229 4.509-3.229h2.803v-.163c0-1.482-.894-2.356-2.701-2.356-1.219 0-2.478.406-3.291 1.077l-.995-1.849c1.158-.893 2.843-1.34 4.59-1.34zm-.345 9.262c1.239 0 2.315-.569 2.742-1.686v-1.259h-2.62c-1.727 0-2.194.65-2.194 1.442 0 .914.772 1.503 2.072 1.503z"/><path d="m57.5357 60.2241c7.088 0 12.8546-5.7665 12.8546-12.8546 0-7.088-5.7665-12.8545-12.8546-12.8545s-12.8545 5.7666-12.8545 12.8547c0 7.0879 5.7665 12.8544 12.8545 12.8544zm0-24.166c6.2372 0 11.3115 5.0743 11.3115 11.3114 0 6.2372-5.0743 11.3115-11.3115 11.3115-6.2371 0-11.3115-5.0743-11.3115-11.3115 0-6.2371 5.0744-11.3114 11.3115-11.3114z"/><path d="m57.5357 56.4225c4.9918 0 9.053-4.0612 9.053-9.053 0-4.9919-4.0612-9.053-9.053-9.053-4.9919 0-9.053 4.0611-9.053 9.053 0 4.9918 4.0611 9.053 9.053 9.053zm0-16.563c4.141 0 7.5099 3.369 7.5099 7.5101 0 4.141-3.3689 7.5098-7.5099 7.5098-4.1411 0-7.51-3.3689-7.51-7.5099 0-4.1411 3.3689-7.51 7.51-7.51z"/><path d="m73.8725 60.4385h-7.4721c-1.0895 0-1.9758.8863-1.9758 1.9758v4.0756c0 1.0895.8863 1.9758 1.9758 1.9758h1.911c.4261 0 .7715-.3454.7715-.7715s-.3454-.7715-.7715-.7715h-1.911c-.2387 0-.4328-.1941-.4328-.4328v-4.0756c0-.2387.1941-.4328.4328-.4328h7.4721c.2387 0 .4328.1941.4328.4328v4.0756c0 .2387-.1941.4328-.4328.4328h-1.9349c-.4261 0-.7716.3454-.7716.7715s.3455.7715.7716.7715h1.9349c1.0895 0 1.9759-.8863 1.9759-1.9758v-4.0756c-.0001-1.0895-.8865-1.9758-1.9759-1.9758z"/><path d="m76.5313 19h-37.9911c-1.4007 0-2.5402 1.1395-2.5402 2.5402v2.474c0 .4261.3455.7715.7715.7715.4261 0 .7716-.3454.7716-.7715v-2.474c0-.5498.4473-.9971.9971-.9971h37.991c.5498 0 .9971.4474.9971.9971v7.7031h-39.9852v-1.7315c0-.4261-.3455-.7715-.7716-.7715-.426 0-.7715.3454-.7715.7715v41.6673c0 1.4007 1.1395 2.5403 2.5402 2.5403h37.991c1.4007 0 2.5402-1.1396 2.5402-2.5403v-47.6389c.0001-1.4007-1.1395-2.5402-2.5401-2.5402zm.9971 50.1791c0 .5499-.4473.9972-.9971.9972h-37.9911c-.5498 0-.9971-.4474-.9971-.9972v-38.3927h39.9853z"/><path d="m53.6932 27.6831c.9142 0 1.6578-.7437 1.6578-1.6578v-2.2643c0-.9142-.7437-1.6578-1.6578-1.6578h-11.2544c-.9141 0-1.6578.7437-1.6578 1.6578v2.2644c0 .9141.7437 1.6578 1.6578 1.6578zm-11.3691-1.6578v-2.2643c0-.0634.0515-.1149.1147-.1149h11.2544c.0634 0 .1148.0515.1148.1149v2.2644c0 .0632-.0514.1147-.1148.1147h-11.2544c-.0632 0-.1147-.0515-.1147-.1148z"/><path d="m62.206 24.8933c0-1.3561-1.1031-2.4593-2.4592-2.4593s-2.4592 1.1032-2.4592 2.4593c0 1.356 1.1032 2.4592 2.4592 2.4592 1.3561-.0001 2.4592-1.1033 2.4592-2.4592zm-3.3753 0c0-.5052.4109-.9162.9162-.9162.5051 0 .9162.4109.9162.9162 0 .5052-.411.9162-.9162.9162-.5053-.0001-.9162-.4111-.9162-.9162z"/><path d="m68.2483 24.8933c0-1.3561-1.1032-2.4593-2.4593-2.4593s-2.4592 1.1032-2.4592 2.4593c0 1.356 1.1032 2.4592 2.4592 2.4592 1.3561-.0001 2.4593-1.1033 2.4593-2.4592zm-3.3754 0c0-.5052.4109-.9162.9162-.9162.5052 0 .9162.4109.9162.9162 0 .5052-.4109.9162-.9162.9162-.5053-.0001-.9162-.4111-.9162-.9162z"/><path d="m74.2905 24.8933c0-1.3561-1.1032-2.4593-2.4593-2.4593-1.356 0-2.4591 1.1032-2.4591 2.4593 0 1.356 1.1032 2.4592 2.4591 2.4592 1.3561-.0001 2.4593-1.1033 2.4593-2.4592zm-3.3755 0c0-.5052.411-.9162.9162-.9162s.9162.4109.9162.9162c0 .5052-.4109.9162-.9162.9162-.5051-.0001-.9162-.4111-.9162-.9162z"/><path d="m44.3833 68.4487c.5651 0 1.0232-.4581 1.0232-1.0232s-.4581-1.0232-1.0232-1.0232-1.0232.4581-1.0232 1.0232.4581 1.0232 1.0232 1.0232z"/><path d="m43.2096 64.7598c-.274 0-.5394-.1461-.6793-.4038-.2036-.3748-.0648-.8436.3099-1.0471.4804-.261 1.0246-.3989 1.5739-.3989.5177 0 1.034.1232 1.4931.3563.3803.1932.532.658.3389 1.0383-.1931.3802-.6578.532-1.0382.3388-.2468-.1254-.5139-.1889-.7937-.1889-.2967 0-.5782.0711-.8366.2115-.1172.0635-.2435.0938-.368.0938z"/><path d="m48.138 62.2977c-.1362 0-.2742-.036-.3992-.1117-.996-.6031-2.1415-.9219-3.3129-.9219-1.1712 0-2.3167.3187-3.3126.9218-.365.221-.8397.1042-1.0606-.2606-.221-.3648-.1042-.8397.2606-1.0606 1.2374-.7491 2.6595-1.1452 4.1128-1.1452s2.8755.3961 4.1128 1.1454c.3648.2209.4815.6957.2606 1.0605-.1453.2397-.4001.3723-.6615.3723z"/></g></svg>

<svg width="117" height="130" viewBox="0 0 117 130" fill="none" xmlns="http://www.w3.org/2000/svg">
<circle cx="57.8343" cy="45.4964" r="44.3397" stroke="black" stroke-width="2.31337"/>
<path d="M4.966 122.659H12.9891V124.873H2.32549V110.655H12.7047V112.869H4.966V116.566H11.8313V118.739H4.966V122.659ZM15.6889 124.873V109.802H18.2279V124.873H15.6889ZM31.7567 119.511C31.7567 119.714 31.7363 120.019 31.716 120.262H23.2055C23.5102 121.847 24.8304 122.862 26.7194 122.862C27.9381 122.862 28.8927 122.476 29.6646 121.684L31.0254 123.248C30.0505 124.406 28.5271 125.015 26.6585 125.015C23.0227 125.015 20.6665 122.679 20.6665 119.45C20.6665 116.22 23.043 113.905 26.2725 113.905C29.4411 113.905 31.7567 116.119 31.7567 119.511ZM26.2725 115.936C24.6273 115.936 23.4289 116.992 23.1852 118.576H29.3396C29.1365 117.012 27.9381 115.936 26.2725 115.936ZM39.1718 125.015C35.7392 125.015 33.3018 122.7 33.3018 119.45C33.3018 116.2 35.7392 113.905 39.1718 113.905C41.2842 113.905 42.9701 114.778 43.8029 116.423L41.8529 117.561C41.203 116.525 40.228 116.058 39.1515 116.058C37.2828 116.058 35.861 117.358 35.861 119.45C35.861 121.562 37.2828 122.842 39.1515 122.842C40.228 122.842 41.203 122.375 41.8529 121.339L43.8029 122.476C42.9701 124.101 41.2842 125.015 39.1718 125.015ZM51.9456 122.476L52.6565 124.284C52.0471 124.771 51.1331 125.015 50.2191 125.015C47.8426 125.015 46.4818 123.756 46.4818 121.359V116.139H44.6943V114.108H46.4818V111.63H49.0207V114.108H51.9253V116.139H49.0207V121.298C49.0207 122.354 49.5488 122.923 50.5238 122.923C51.0519 122.923 51.5597 122.781 51.9456 122.476ZM57.1622 115.611C57.8934 114.473 59.2136 113.905 61.0214 113.905V116.322C60.7979 116.281 60.6151 116.261 60.4323 116.261C58.5027 116.261 57.284 117.398 57.284 119.612V124.873H54.7451V114.027H57.1622V115.611ZM66.2243 112.544L68.9664 109.761H71.9522L68.418 112.544H66.2243ZM67.9508 125.015C64.6197 125.015 62.1823 122.7 62.1823 119.45C62.1823 116.2 64.6197 113.905 67.9508 113.905C71.3225 113.905 73.7396 116.2 73.7396 119.45C73.7396 122.7 71.3225 125.015 67.9508 125.015ZM67.9508 122.842C69.7991 122.842 71.1803 121.522 71.1803 119.45C71.1803 117.378 69.7991 116.058 67.9508 116.058C66.1227 116.058 64.7416 117.378 64.7416 119.45C64.7416 121.522 66.1227 122.842 67.9508 122.842ZM82.3219 113.905C84.9218 113.905 86.8514 115.387 86.8514 118.658V124.873H84.3124V118.983C84.3124 117.053 83.3578 116.119 81.7328 116.119C79.9251 116.119 78.7064 117.216 78.7064 119.389V124.873H76.1675V114.027H78.5845V115.428C79.4173 114.433 80.7376 113.905 82.3219 113.905ZM91.3518 112.239C90.4175 112.239 89.7269 111.569 89.7269 110.716C89.7269 109.863 90.4175 109.192 91.3518 109.192C92.2861 109.192 92.9767 109.822 92.9767 110.655C92.9767 111.549 92.3064 112.239 91.3518 112.239ZM90.0722 124.873V114.027H92.6111V124.873H90.0722ZM100.92 125.015C97.4872 125.015 95.0498 122.7 95.0498 119.45C95.0498 116.2 97.4872 113.905 100.92 113.905C103.032 113.905 104.718 114.778 105.551 116.423L103.601 117.561C102.951 116.525 101.976 116.058 100.9 116.058C99.0308 116.058 97.609 117.358 97.609 119.45C97.609 121.562 99.0308 122.842 100.9 122.842C101.976 122.842 102.951 122.375 103.601 121.339L105.551 122.476C104.718 124.101 103.032 125.015 100.92 125.015ZM111.889 113.905C115.017 113.905 116.825 115.387 116.825 118.515V124.873H114.428V123.553C113.819 124.487 112.641 125.015 111.016 125.015C108.538 125.015 106.974 123.654 106.974 121.765C106.974 119.958 108.192 118.536 111.483 118.536H114.286V118.373C114.286 116.891 113.392 116.017 111.585 116.017C110.366 116.017 109.107 116.423 108.294 117.094L107.299 115.245C108.457 114.352 110.142 113.905 111.889 113.905ZM111.544 123.167C112.783 123.167 113.859 122.598 114.286 121.481V120.222H111.666C109.939 120.222 109.472 120.872 109.472 121.664C109.472 122.578 110.244 123.167 111.544 123.167Z" fill="black"/>
<path d="M57.5357 60.2241C64.6237 60.2241 70.3903 54.4576 70.3903 47.3695C70.3903 40.2815 64.6238 34.515 57.5357 34.515C50.4476 34.515 44.6812 40.2816 44.6812 47.3697C44.6812 54.4576 50.4477 60.2241 57.5357 60.2241ZM57.5357 36.0581C63.7729 36.0581 68.8472 41.1324 68.8472 47.3695C68.8472 53.6067 63.7729 58.681 57.5357 58.681C51.2986 58.681 46.2242 53.6067 46.2242 47.3695C46.2242 41.1324 51.2986 36.0581 57.5357 36.0581Z" fill="black"/>
<path d="M57.5357 56.4225C62.5275 56.4225 66.5887 52.3613 66.5887 47.3695C66.5887 42.3776 62.5275 38.3165 57.5357 38.3165C52.5438 38.3165 48.4827 42.3776 48.4827 47.3695C48.4827 52.3613 52.5438 56.4225 57.5357 56.4225ZM57.5357 39.8595C61.6767 39.8595 65.0456 43.2285 65.0456 47.3696C65.0456 51.5106 61.6767 54.8794 57.5357 54.8794C53.3946 54.8794 50.0257 51.5105 50.0257 47.3695C50.0257 43.2284 53.3946 39.8595 57.5357 39.8595Z" fill="black"/>
<path d="M73.8725 60.4385H66.4004C65.3109 60.4385 64.4246 61.3248 64.4246 62.4143V66.4899C64.4246 67.5794 65.3109 68.4657 66.4004 68.4657H68.3114C68.7375 68.4657 69.0829 68.1203 69.0829 67.6942C69.0829 67.2681 68.7375 66.9227 68.3114 66.9227H66.4004C66.1617 66.9227 65.9676 66.7286 65.9676 66.4899V62.4143C65.9676 62.1756 66.1617 61.9815 66.4004 61.9815H73.8725C74.1112 61.9815 74.3053 62.1756 74.3053 62.4143V66.4899C74.3053 66.7286 74.1112 66.9227 73.8725 66.9227H71.9376C71.5115 66.9227 71.166 67.2681 71.166 67.6942C71.166 68.1203 71.5115 68.4657 71.9376 68.4657H73.8725C74.962 68.4657 75.8484 67.5794 75.8484 66.4899V62.4143C75.8483 61.3248 74.9619 60.4385 73.8725 60.4385Z" fill="black"/>
<path d="M76.5313 19H38.5402C37.1395 19 36 20.1395 36 21.5402V24.0142C36 24.4403 36.3455 24.7857 36.7715 24.7857C37.1976 24.7857 37.5431 24.4403 37.5431 24.0142V21.5402C37.5431 20.9904 37.9904 20.5431 38.5402 20.5431H76.5312C77.081 20.5431 77.5283 20.9905 77.5283 21.5402V29.2433H37.5431V27.5118C37.5431 27.0857 37.1976 26.7403 36.7715 26.7403C36.3455 26.7403 36 27.0857 36 27.5118V69.1791C36 70.5798 37.1395 71.7194 38.5402 71.7194H76.5312C77.9319 71.7194 79.0714 70.5798 79.0714 69.1791V21.5402C79.0715 20.1395 77.9319 19 76.5313 19ZM77.5284 69.1791C77.5284 69.729 77.0811 70.1763 76.5313 70.1763H38.5402C37.9904 70.1763 37.5431 69.7289 37.5431 69.1791V30.7864H77.5284V69.1791Z" fill="black"/>
<path d="M53.6932 27.6831C54.6074 27.6831 55.351 26.9394 55.351 26.0253V23.761C55.351 22.8468 54.6073 22.1032 53.6932 22.1032H42.4388C41.5247 22.1032 40.781 22.8469 40.781 23.761V26.0254C40.781 26.9395 41.5247 27.6832 42.4388 27.6832L53.6932 27.6831ZM42.3241 26.0253V23.761C42.3241 23.6976 42.3756 23.6461 42.4388 23.6461H53.6932C53.7566 23.6461 53.808 23.6976 53.808 23.761V26.0254C53.808 26.0886 53.7566 26.1401 53.6932 26.1401H42.4388C42.3756 26.1401 42.3241 26.0886 42.3241 26.0253Z" fill="black"/>
<path d="M62.206 24.8933C62.206 23.5372 61.1029 22.434 59.7468 22.434C58.3907 22.434 57.2876 23.5372 57.2876 24.8933C57.2876 26.2493 58.3908 27.3525 59.7468 27.3525C61.1029 27.3524 62.206 26.2492 62.206 24.8933ZM58.8307 24.8933C58.8307 24.3881 59.2416 23.9771 59.7469 23.9771C60.252 23.9771 60.6631 24.388 60.6631 24.8933C60.6631 25.3985 60.2521 25.8095 59.7469 25.8095C59.2416 25.8094 58.8307 25.3984 58.8307 24.8933Z" fill="black"/>
<path d="M68.2483 24.8933C68.2483 23.5372 67.1451 22.434 65.789 22.434C64.4329 22.434 63.3298 23.5372 63.3298 24.8933C63.3298 26.2493 64.433 27.3525 65.789 27.3525C67.1451 27.3524 68.2483 26.2492 68.2483 24.8933ZM64.8729 24.8933C64.8729 24.3881 65.2838 23.9771 65.7891 23.9771C66.2943 23.9771 66.7053 24.388 66.7053 24.8933C66.7053 25.3985 66.2944 25.8095 65.7891 25.8095C65.2838 25.8094 64.8729 25.3984 64.8729 24.8933Z" fill="black"/>
<path d="M74.2905 24.8933C74.2905 23.5372 73.1873 22.434 71.8312 22.434C70.4752 22.434 69.3721 23.5372 69.3721 24.8933C69.3721 26.2493 70.4753 27.3525 71.8312 27.3525C73.1873 27.3524 74.2905 26.2492 74.2905 24.8933ZM70.915 24.8933C70.915 24.3881 71.326 23.9771 71.8312 23.9771C72.3364 23.9771 72.7474 24.388 72.7474 24.8933C72.7474 25.3985 72.3365 25.8095 71.8312 25.8095C71.3261 25.8094 70.915 25.3984 70.915 24.8933Z" fill="black"/>
<path d="M44.3833 68.4487C44.9484 68.4487 45.4065 67.9906 45.4065 67.4255C45.4065 66.8604 44.9484 66.4023 44.3833 66.4023C43.8182 66.4023 43.3601 66.8604 43.3601 67.4255C43.3601 67.9906 43.8182 68.4487 44.3833 68.4487Z" fill="black"/>
<path d="M43.2096 64.7598C42.9356 64.7598 42.6702 64.6137 42.5303 64.356C42.3267 63.9812 42.4655 63.5124 42.8402 63.3089C43.3206 63.0479 43.8648 62.91 44.4141 62.91C44.9318 62.91 45.4481 63.0332 45.9072 63.2663C46.2875 63.4595 46.4392 63.9243 46.2461 64.3046C46.053 64.6848 45.5883 64.8366 45.2079 64.6434C44.9611 64.518 44.694 64.4545 44.4142 64.4545C44.1175 64.4545 43.836 64.5256 43.5776 64.666C43.4604 64.7295 43.3341 64.7598 43.2096 64.7598Z" fill="black"/>
<path d="M48.138 62.2977C48.0018 62.2977 47.8638 62.2617 47.7388 62.186C46.7428 61.5829 45.5973 61.2641 44.4259 61.2641C43.2547 61.2641 42.1092 61.5828 41.1133 62.1859C40.7483 62.4069 40.2736 62.2901 40.0527 61.9253C39.8317 61.5605 39.9485 61.0856 40.3133 60.8647C41.5507 60.1156 42.9728 59.7195 44.4261 59.7195C45.8794 59.7195 47.3016 60.1156 48.5389 60.8649C48.9037 61.0858 49.0204 61.5606 48.7995 61.9254C48.6542 62.1651 48.3994 62.2977 48.138 62.2977Z" fill="black"/>
</svg>
